images/standarts/standart-17.svg

<svg width="25" height="24" viewBox="0 0 25 24" fill="none" xmlns="http://www.w3.org/2000/svg">
<g clip-path="url(#clip0_68_4575)">
<path d="M11.5 14H13C13.9283 14 14.8185 13.6313 15.4749 12.9749C16.1313 12.3185 16.5 11.4283 16.5 10.5C16.5 9.57174 16.1313 8.6815 15.4749 8.02513C14.8185 7.36875 13.9283 7 13 7H9.5V17H11.5V14ZM4.5 3H20.5C20.7652 3 21.0196 3.10536 21.2071 3.29289C21.3946 3.48043 21.5 3.73478 21.5 4V20C21.5 20.2652 21.3946 20.5196 21.2071 20.7071C21.0196 20.8946 20.7652 21 20.5 21H4.5C4.23478 21 3.98043 20.8946 3.79289 20.7071C3.60536 20.5196 3.5 20.2652 3.5 20V4C3.5 3.73478 3.60536 3.48043 3.79289 3.29289C3.98043 3.10536 4.23478 3 4.5 3ZM11.5 9H13C13.3978 9 13.7794 9.15804 14.0607 9.43934C14.342 9.72064 14.5 10.1022 14.5 10.5C14.5 10.8978 14.342 11.2794 14.0607 11.5607C13.7794 11.842 13.3978 12 13 12H11.5V9Z" fill="white"/>
</g>
<defs>
<clipPath id="clip0_68_4575">
<rect width="24" height="24" fill="white" transform="translate(0.5)"/>
</clipPath>
</defs>
</svg>

<svg width="25" height="24" fill="none" xmlns="http://www.w3.org/2000/svg"><g clip-path="url(#clip0_68_4575)"><path d="M11.5 14H13a3.5 3.5 0 100-7H9.5v10h2v-3zm-7-11h16a1 1 0 011 1v16a1 1 0 01-1 1h-16a1 1 0 01-1-1V4a1 1 0 011-1zm7 6H13a1.5 1.5 0 010 3h-1.5V9z" fill="#fff"/></g><defs><clipPath id="clip0_68_4575"><path fill="#fff" transform="translate(.5)" d="M0 0h24v24H0z"/></clipPath></defs></svg>
